X: 1
T: Arms Dealer's Daughter, The
M: 4/4
L: 1/8
R: reel
K: Emix
B2AG EBGE | e^dBe dBGA | B2AG EBGE | DF~F2 DFAF | 
B2AG EBGE | e^dBe dBG/A/B | =cBAd cBcB | ABAG E4 :|
|: e2^dB fdBf | ^dB=gB fedf | e2^dB fdB=c- | =cBAc B4 |
e2^dB fdBf | ^dB=gB fedf | =gfea gfgf |1 a=gfg fe^df :|2 efe^d e2GA ||
